src/assets/skills/problem-solving.svg

<svg fill="none" height="737" viewBox="0 0 736 737" width="736" xmlns="http://www.w3.org/2000/svg" xmlns:xlink="http://www.w3.org/1999/xlink"><linearGradient id="a" gradientUnits="userSpaceOnUse" x1="368" x2="368" y1="0" y2="737"><stop offset=".00225706" stop-color="#2b5355"/><stop offset="1"/></linearGradient><path d="m0 368.5c0-203.241 164.759-368.5 368-368.5 203.241 0 368 165.259 368 368.5 0 203.241-164.759 368.5-368 368.5-203.241 0-368-165.259-368-368.5z" fill="url(#a)"/><path d="m234.76 455.898c-.282 9.453 3.179 18.997 10.385 26.213 13.868 13.887 36.352 13.887 50.22 0s13.868-36.402 0-50.289c-5.979-6.005-13.912-9.663-22.357-10.308-7.439-.576-15.198-2.153-20.473-7.436-4.082-4.087-4.082-10.713 0-14.799l30.275-30.317c6.934-6.944 6.934-18.201 0-25.145l-28.358-28.396c-5.741-5.749-11.416-4.675-11.461 3.456-.052 9.033-3.519 18.049-10.401 24.94-13.868 13.887-36.352 13.887-50.22 0-13.868-13.885-13.868-36.4 0-50.287 6.109-6.135 14.251-9.816 22.886-10.346 1.281-.08 2.628.082 3.975.3 7.262 1.173 7.369-5.966 2.167-11.175l-16.474-16.495c-6.934-6.944-18.175-6.944-25.109 0l-100.4394 100.576c-6.9341 6.944-6.9341 18.201 0 25.144l15.0179 15.034 72.8695 72.969c6.934 6.942 18.175 6.942 25.109-.001l27.57-27.607c5.575-5.582 14.612-5.582 20.186 0 3.602 3.607 4.784 8.869 4.632 13.969z" fill="#d9d9d9"/><path clip-rule="evenodd" d="m464.601 509.848c9.44.283 18.972-3.184 26.178-10.399 13.867-13.887 13.867-36.402 0-50.289-13.868-13.886-36.352-13.886-50.22 0-5.998 5.988-9.65 13.932-10.295 22.388-.575 7.449-2.151 15.219-7.425 20.502-1.961 1.962-4.619 3.064-7.391 3.064-2.771 0-5.429-1.102-7.39-3.064l-30.274-30.317c-6.934-6.944-18.177-6.944-25.111 0l-28.359 28.397c-5.741 5.749-4.667 11.431 3.451 11.477 9.021.051 18.026 3.522 24.908 10.415 13.868 13.885 13.868 36.4 0 50.287s-36.352 13.887-50.22 0c-6.126-6.117-9.802-14.27-10.331-22.917-.081-1.283.082-2.631.298-3.98 1.174-7.272-5.957-7.379-11.159-2.17l-16.473 16.496c-6.934 6.943-6.934 18.2 0 25.144l100.44 100.576c6.934 6.944 18.176 6.944 25.11-.001l15.015-15.038 72.868-72.968c6.934-6.943 6.934-18.201 0-25.144l-27.57-27.607c-5.574-5.581-5.574-14.632 0-20.214 3.603-3.607 8.857-4.791 13.95-4.638zm-194.028-282.459c-9.44-.282-18.971 3.184-26.177 10.399-13.868 13.887-13.868 36.402 0 50.288 13.868 13.887 36.352 13.887 50.22 0 5.998-5.988 9.65-13.931 10.295-22.387.574-7.449 2.15-15.218 7.425-20.501 4.082-4.087 10.699-4.087 14.78 0l30.275 30.317c6.934 6.943 18.177 6.943 25.111 0l28.358-28.398c5.741-5.749 4.668-11.431-3.451-11.476-9.021-.051-18.025-3.524-24.907-10.415-13.868-13.887-13.868-36.402 0-50.289 13.868-13.886 36.351-13.886 50.219 0 6.127 6.117 9.803 14.271 10.332 22.918.08 1.282-.082 2.632-.299 3.98-1.172 7.272 5.957 7.379 11.159 2.17l16.473-16.495c6.934-6.943 6.934-18.201.001-25.144l-100.44-100.5765c-6.935-6.9435-18.177-6.9435-25.111 0l-15.014 15.0383-72.869 72.9682c-6.933 6.944-6.933 18.2.001 25.144l27.569 27.607c5.574 5.582 5.574 14.632 0 20.213-3.602 3.608-8.856 4.791-13.95 4.639z" fill="#2ccbd3" fill-rule="evenodd"/><path d="m500.414 281.34c.283-9.454-3.179-18.999-10.384-26.213-13.868-13.887-36.352-13.887-50.22 0-13.868 13.886-13.868 36.401 0 50.287 5.979 6.006 13.912 9.664 22.357 10.309 7.439.576 15.197 2.154 20.473 7.437 4.082 4.086 4.082 10.712 0 14.799l-30.276 30.316c-6.934 6.943-6.934 18.201 0 25.144l28.359 28.398c5.741 5.748 11.415 4.673 11.461-3.456.051-9.033 3.519-18.05 10.401-24.942 13.868-13.887 36.352-13.887 50.22 0 13.867 13.887 13.867 36.402 0 50.289-6.109 6.135-14.252 9.815-22.887 10.345-1.28.08-2.627-.082-3.974-.299-7.263-1.175-7.369 5.966-2.167 11.175l16.473 16.495c6.934 6.943 18.176 6.943 25.11 0l100.44-100.576c6.934-6.944 6.934-18.201 0-25.145l-15.018-15.035-72.87-72.967c-6.934-6.944-18.176-6.944-25.109 0l-27.57 27.608c-5.575 5.581-14.612 5.581-20.186 0-3.603-3.609-4.784-8.87-4.633-13.969z" fill="#e1e4e5"/></svg>

<svg width="736" height="737" viewBox="0 0 736 737" fill="none" xmlns="http://www.w3.org/2000/svg">
<path d="M0 368.5C0 165.259 164.759 0 368 0V0C571.241 0 736 165.259 736 368.5V368.5C736 571.741 571.241 737 368 737V737C164.759 737 0 571.741 0 368.5V368.5Z" fill="url(#paint0_linear_108_369)"/>
<path d="M234.76 455.898C234.478 465.351 237.939 474.895 245.145 482.111C259.013 495.998 281.497 495.998 295.365 482.111C309.233 468.224 309.233 445.709 295.365 431.822C289.386 425.817 281.453 422.159 273.008 421.514C265.569 420.938 257.81 419.361 252.535 414.078C248.453 409.991 248.453 403.365 252.535 399.279L282.81 368.962C289.744 362.018 289.744 350.761 282.81 343.817L254.452 315.421C248.711 309.672 243.036 310.746 242.991 318.877C242.939 327.91 239.472 336.926 232.59 343.817C218.722 357.704 196.238 357.704 182.37 343.817C168.502 329.932 168.502 307.417 182.37 293.53C188.479 287.395 196.621 283.714 205.256 283.184C206.537 283.104 207.884 283.266 209.231 283.484C216.493 284.657 216.6 277.518 211.398 272.309L194.924 255.814C187.99 248.87 176.749 248.87 169.815 255.814L69.3756 356.39C62.4415 363.334 62.4415 374.591 69.3756 381.534L84.3935 396.568L157.263 469.537C164.197 476.479 175.438 476.479 182.372 469.536L209.942 441.929C215.517 436.347 224.554 436.347 230.128 441.929C233.73 445.536 234.912 450.798 234.76 455.898Z" fill="#D9D9D9"/>
<path fill-rule="evenodd" clip-rule="evenodd" d="M464.601 509.848C474.041 510.131 483.573 506.664 490.779 499.449C504.646 485.562 504.646 463.047 490.779 449.16C476.911 435.274 454.427 435.274 440.559 449.16C434.561 455.148 430.909 463.092 430.264 471.548C429.689 478.997 428.113 486.767 422.839 492.05C420.878 494.012 418.22 495.114 415.448 495.114C412.677 495.114 410.019 494.012 408.058 492.05L377.784 461.733C370.85 454.789 359.607 454.789 352.673 461.733L324.314 490.13C318.573 495.879 319.647 501.561 327.765 501.607C336.786 501.658 345.791 505.129 352.673 512.022C366.541 525.907 366.541 548.422 352.673 562.309C338.805 576.196 316.321 576.196 302.453 562.309C296.327 556.192 292.651 548.039 292.122 539.392C292.041 538.109 292.204 536.761 292.42 535.412C293.594 528.14 286.463 528.033 281.261 533.242L264.788 549.738C257.854 556.681 257.854 567.938 264.788 574.882L365.228 675.458C372.162 682.402 383.404 682.402 390.338 675.457L405.353 660.419L478.221 587.451C485.155 580.508 485.155 569.25 478.221 562.307L450.651 534.7C445.077 529.119 445.077 520.068 450.651 514.486C454.254 510.879 459.508 509.695 464.601 509.848ZM270.573 227.389C261.133 227.107 251.602 230.573 244.396 237.788C230.528 251.675 230.528 274.19 244.396 288.076C258.264 301.963 280.748 301.963 294.616 288.076C300.614 282.088 304.266 274.145 304.911 265.689C305.485 258.24 307.061 250.471 312.336 245.188C316.418 241.101 323.035 241.101 327.116 245.188L357.391 275.505C364.325 282.448 375.568 282.448 382.502 275.505L410.86 247.107C416.601 241.358 415.528 235.676 407.409 235.631C398.388 235.58 389.384 232.107 382.502 225.216C368.634 211.329 368.634 188.814 382.502 174.927C396.37 161.041 418.853 161.041 432.721 174.927C438.848 181.044 442.524 189.198 443.053 197.845C443.133 199.127 442.971 200.477 442.754 201.825C441.582 209.097 448.711 209.204 453.913 203.995L470.386 187.5C477.32 180.557 477.32 169.299 470.387 162.356L369.947 61.7795C363.012 54.836 351.77 54.836 344.836 61.7795L329.822 76.8178L256.953 149.786C250.02 156.73 250.02 167.986 256.954 174.93L284.523 202.537C290.097 208.119 290.097 217.169 284.523 222.75C280.921 226.358 275.667 227.541 270.573 227.389Z" fill="#2CCBD3"/>
<path d="M500.414 281.34C500.697 271.886 497.235 262.341 490.03 255.127C476.162 241.24 453.678 241.24 439.81 255.127C425.942 269.013 425.942 291.528 439.81 305.414C445.789 311.42 453.722 315.078 462.167 315.723C469.606 316.299 477.364 317.877 482.64 323.16C486.722 327.246 486.722 333.872 482.64 337.959L452.364 368.275C445.43 375.218 445.43 386.476 452.364 393.419L480.723 421.817C486.464 427.565 492.138 426.49 492.184 418.361C492.235 409.328 495.703 400.311 502.585 393.419C516.453 379.532 538.937 379.532 552.805 393.419C566.672 407.306 566.672 429.821 552.805 443.708C546.696 449.843 538.553 453.523 529.918 454.053C528.638 454.133 527.291 453.971 525.944 453.754C518.681 452.579 518.575 459.72 523.777 464.929L540.25 481.424C547.184 488.367 558.426 488.367 565.36 481.424L665.8 380.848C672.734 373.904 672.734 362.647 665.8 355.703L650.782 340.668L577.912 267.701C570.978 260.757 559.736 260.757 552.803 267.701L525.233 295.309C519.658 300.89 510.621 300.89 505.047 295.309C501.444 291.7 500.263 286.439 500.414 281.34Z" fill="#E1E4E5"/>
<defs>
<linearGradient id="paint0_linear_108_369" x1="368" y1="0" x2="368" y2="737" gradientUnits="userSpaceOnUse">
<stop offset="0.00225706" stop-color="#2B5355"/>
<stop offset="1"/>
</linearGradient>
</defs>
</svg>
